svg/color/melion.svg

<svg width="40" height="40" viewBox="0 0 40 40" fill="none" xmlns="http://www.w3.org/2000/svg">
<g clip-path="url(#clip0_821_4131)">
<path d="M20 0C31.0457 0 40 8.9543 40 20C40 31.0457 31.0457 40 20 40C8.95431 40 7.90517e-06 31.0457 0 20C6.58765e-07 8.95431 8.95431 1.97595e-06 20 0Z" fill="#CCEFFB"/>
<path d="M26 6C30.4183 6 34 9.58172 34 14V26C34 30.4183 30.4183 34 26 34H14C9.58172 34 6 30.4183 6 26V14C6 9.58172 9.58172 6 14 6H26Z" fill="#00B1EA"/>
<g clip-path="url(#clip1_821_4131)">
<path d="M19.2627 23.7325C19.0617 23.7346 18.8677 23.6588 18.7216 23.521C18.5756 23.3832 18.4891 23.1943 18.4802 22.9941C18.4785 22.9591 18.4752 22.865 18.3943 22.865C18.361 22.865 18.3327 22.8841 18.3002 22.9141C18.2068 23 18.0885 23.0858 17.9168 23.0858C17.8294 23.0839 17.7431 23.0653 17.6627 23.0308C17.2168 22.8525 17.211 22.5491 17.2285 22.4266C17.2335 22.395 17.2343 22.36 17.2118 22.335L17.1852 22.31H17.1568C17.1343 22.31 17.111 22.32 17.0793 22.3425C16.9703 22.4252 16.838 22.4718 16.701 22.4758C16.6288 22.4751 16.5573 22.4609 16.4902 22.4341C15.9002 22.2091 15.9485 21.6608 15.976 21.4958C15.9802 21.4616 15.9718 21.4358 15.951 21.4191L15.9093 21.3858L15.8702 21.4216C15.7571 21.5302 15.6063 21.5908 15.4493 21.5908C15.2882 21.5912 15.1334 21.5279 15.019 21.4146C14.9046 21.3013 14.84 21.1474 14.8393 20.9866C14.8393 20.6533 15.1127 20.385 15.4493 20.385C15.7527 20.385 16.0118 20.61 16.0502 20.91L16.0718 21.0725L16.1635 20.935C16.1718 20.92 16.4193 20.5516 16.8735 20.5516C16.9585 20.5516 17.0485 20.565 17.1368 20.5933C17.4985 20.7016 17.5602 21.0266 17.5693 21.16C17.576 21.2383 17.6318 21.2433 17.6443 21.2433C17.6752 21.2433 17.6977 21.2233 17.7135 21.2058C17.772 21.1459 17.842 21.0984 17.9193 21.0662C17.9966 21.034 18.0797 21.0177 18.1635 21.0183C18.2702 21.0183 18.3827 21.0433 18.4985 21.0933C19.0735 21.3375 18.8143 22.0583 18.8102 22.0658C18.7618 22.1858 18.7593 22.2383 18.806 22.2691L18.8285 22.28H18.8452C18.8702 22.28 18.9035 22.2683 18.9568 22.2508C19.0343 22.2241 19.1527 22.1841 19.2627 22.1841C19.469 22.185 19.6668 22.2667 19.8133 22.4117C19.9598 22.5566 20.0434 22.7532 20.046 22.9591C20.0447 23.1653 19.9615 23.3625 19.8146 23.5074C19.6678 23.6524 19.4693 23.7333 19.2627 23.7325ZM25.3477 20.2566C24.3993 19.44 22.2077 17.5566 21.6135 17.115C21.2752 16.8633 21.0427 16.73 20.8402 16.6708C20.7171 16.6327 20.5891 16.613 20.4602 16.6125C20.3085 16.6125 20.1468 16.6391 19.9768 16.6916C19.5935 16.8125 19.2118 17.1125 18.8418 17.4033L18.8227 17.4183C18.4777 17.6883 18.1227 17.9683 17.8527 18.0266C17.7351 18.0532 17.6149 18.0669 17.4943 18.0675C17.1927 18.0675 16.9218 17.9808 16.8193 17.8525C16.8027 17.8316 16.8135 17.7975 16.8527 17.7483L16.8593 17.7416L17.6927 16.8525C18.3452 16.2075 18.9635 15.5975 20.3843 15.565H20.4552C21.3402 15.565 22.2218 15.9558 22.3218 16.0016C23.1144 16.3922 23.985 16.5985 24.8685 16.605C25.7652 16.605 26.6918 16.3858 27.6635 15.9425C27.5535 15.8513 27.441 15.7632 27.326 15.6783C26.4718 16.045 25.6568 16.2283 24.871 16.2283C24.0693 16.2283 23.2668 16.0375 22.4893 15.6616C22.4477 15.6433 21.4727 15.1891 20.456 15.1866C20.4293 15.1866 20.4018 15.1866 20.376 15.1883C19.181 15.2158 18.5093 15.635 18.0577 16.0016C17.6177 16.0125 17.2393 16.1166 16.901 16.21C16.6002 16.2933 16.3402 16.365 16.0852 16.3641C15.981 16.3641 15.7935 16.3558 15.7768 16.3541C15.4852 16.3458 14.0143 15.99 12.8452 15.5525C12.726 15.6358 12.6118 15.7216 12.4993 15.8108C13.721 16.305 15.2077 16.6883 15.676 16.7183C15.8068 16.7266 15.9452 16.7408 16.0852 16.7408C16.3952 16.7408 16.7052 16.655 17.0052 16.5716C17.1827 16.5225 17.3768 16.4691 17.5818 16.43L17.4185 16.5916L16.571 17.4975C16.5043 17.5641 16.3593 17.7425 16.4543 17.9616C16.5039 18.0624 16.5814 18.1468 16.6777 18.205C16.8802 18.34 17.2418 18.43 17.5777 18.4308C17.7043 18.4308 17.8252 18.4183 17.936 18.3941C18.2918 18.315 18.6643 18.0208 19.0602 17.7108C19.3743 17.4641 19.821 17.1508 20.1627 17.0591C20.2633 17.0324 20.3669 17.0184 20.471 17.0175C20.4975 17.0168 20.5239 17.0182 20.5502 17.0216C20.7752 17.05 20.9943 17.1258 21.386 17.415C22.0818 17.9316 25.1618 20.5941 25.191 20.62C25.1927 20.6216 25.3893 20.7891 25.3743 21.0675C25.3685 21.2225 25.2827 21.3608 25.1293 21.4558C25.0096 21.5351 24.8697 21.5784 24.726 21.5808C24.5997 21.5806 24.4761 21.5447 24.3693 21.4775C24.3577 21.4691 23.3027 20.5133 22.9143 20.1916C22.8527 20.1416 22.7927 20.0958 22.731 20.0958C22.7157 20.0956 22.7006 20.0989 22.6867 20.1054C22.6729 20.1119 22.6607 20.1214 22.651 20.1333C22.5902 20.2083 22.6593 20.31 22.7385 20.3783L23.9719 21.6033C23.9735 21.6033 24.1252 21.745 24.1418 21.9325C24.1518 22.1358 24.0535 22.305 23.8502 22.4375C23.7213 22.527 23.5688 22.5766 23.4118 22.58C23.2873 22.5795 23.1657 22.5427 23.0618 22.4741L22.8835 22.3025C22.5935 22.0117 22.2933 21.7313 21.9835 21.4616C21.9235 21.4133 21.8602 21.3683 21.7993 21.3683C21.7848 21.3679 21.7704 21.3705 21.7569 21.376C21.7434 21.3814 21.7312 21.3896 21.721 21.4C21.6935 21.4308 21.6743 21.4858 21.7443 21.5766C21.7633 21.6013 21.7842 21.6244 21.8068 21.6458L22.7052 22.6441C22.7135 22.6525 22.8902 22.8608 22.7252 23.07L22.6935 23.11C22.6673 23.1382 22.6395 23.1649 22.6102 23.19C22.4568 23.315 22.2518 23.3266 22.171 23.3266C22.13 23.3271 22.089 23.3237 22.0485 23.3166C21.9602 23.3016 21.9002 23.2766 21.8718 23.2425L21.861 23.2316C21.811 23.1816 21.3593 22.7241 20.9827 22.415C20.9335 22.3733 20.8718 22.3233 20.8077 22.3233C20.7926 22.3231 20.7777 22.3262 20.7639 22.3322C20.7501 22.3383 20.7378 22.3471 20.7277 22.3583C20.6527 22.4383 20.7643 22.5583 20.811 22.6025L21.5777 23.4383C21.5716 23.457 21.5623 23.4745 21.5502 23.49C21.5227 23.5266 21.4302 23.6191 21.151 23.6533C21.1173 23.6575 21.0833 23.6594 21.0493 23.6591C20.7618 23.6591 20.456 23.5225 20.2977 23.4391C20.3691 23.2891 20.4061 23.1252 20.406 22.9591C20.4052 22.8066 20.3737 22.6558 20.3133 22.5157C20.253 22.3755 20.1649 22.249 20.0545 22.1435C19.9441 22.038 19.8136 21.9557 19.6707 21.9015C19.5278 21.8474 19.3754 21.8225 19.2227 21.8283C19.2427 21.5433 19.2018 21.0033 18.6418 20.7666C18.4909 20.6997 18.3278 20.6642 18.1627 20.6625C18.041 20.6625 17.9235 20.6833 17.8127 20.725C17.6957 20.5009 17.4947 20.332 17.2535 20.255C17.1212 20.2088 16.9821 20.1849 16.8418 20.1841C16.6085 20.1841 16.3943 20.2508 16.2027 20.3858C16.1117 20.2742 15.997 20.1841 15.8669 20.1222C15.7367 20.0602 15.5944 20.0279 15.4502 20.0275C15.1946 20.0278 14.9493 20.128 14.7668 20.3066C14.5277 20.1258 13.5793 19.5316 11.0443 18.9625C10.8511 18.9139 10.6588 18.8614 10.4677 18.805C10.4392 18.941 10.4178 19.0784 10.4035 19.2166L10.9618 19.3475C13.5518 19.9158 14.4085 20.5066 14.5527 20.6183C14.5034 20.7349 14.4779 20.8601 14.4777 20.9866C14.4783 21.1283 14.5103 21.2682 14.5712 21.3962C14.6321 21.5242 14.7205 21.6372 14.8301 21.7273C14.9397 21.8173 15.0679 21.8822 15.2054 21.9172C15.343 21.9522 15.4866 21.9566 15.626 21.93C15.706 22.3191 15.9643 22.6141 16.3585 22.7658C16.4688 22.8089 16.586 22.8315 16.7043 22.8325C16.7793 22.8325 16.8535 22.8225 16.926 22.8041C16.9977 22.9875 17.161 23.215 17.5277 23.3608C17.6485 23.4108 17.7777 23.4374 17.9085 23.4391C18.0102 23.4391 18.1093 23.4208 18.2043 23.3866C18.2916 23.5946 18.4386 23.7721 18.6268 23.8968C18.8149 24.0215 19.0359 24.0879 19.2618 24.0875C19.5702 24.0891 19.8668 23.965 20.0827 23.7458C20.2668 23.8466 20.656 24.03 21.0518 24.03C21.1018 24.03 21.1502 24.0283 21.1977 24.0216C21.5893 23.9725 21.7718 23.8216 21.8552 23.7033C21.8702 23.6827 21.8836 23.661 21.8952 23.6383C21.9868 23.665 22.0902 23.6866 22.206 23.6866C22.4185 23.6866 22.6235 23.615 22.831 23.4658C23.0343 23.3208 23.1793 23.1125 23.201 22.935V22.9266C23.2702 22.9408 23.3402 22.9483 23.4102 22.9483C23.631 22.9483 23.8493 22.88 24.0543 22.7466C24.4543 22.4883 24.5227 22.1508 24.516 21.93C24.6558 21.9589 24.7999 21.9594 24.9399 21.9317C25.0799 21.9039 25.2129 21.8483 25.331 21.7683C25.4493 21.6974 25.5489 21.5994 25.6217 21.4823C25.6944 21.3651 25.7382 21.2324 25.7493 21.095C25.7638 20.9041 25.7171 20.7135 25.616 20.5508C26.286 20.2658 27.8127 19.715 29.6118 19.315C29.6005 19.1774 29.5818 19.0405 29.556 18.905C28.1135 19.2199 26.7046 19.672 25.3485 20.255L25.3477 20.2566ZM29.6169 19.6208C29.6169 22.9766 25.3118 25.6983 20.0027 25.6983C14.6927 25.6983 10.3877 22.9766 10.3877 19.6208C10.3877 16.2641 14.6918 13.5433 20.0035 13.5433C25.3127 13.5433 29.6169 16.2641 29.6169 19.6208ZM30.0002 19.6241C30.0002 16.0641 25.5218 13.1616 20.0002 13.1616C14.4785 13.1616 10.0018 16.0641 10.0018 19.625L10.0002 20.0033C10.0002 23.7808 13.9127 26.8391 19.9993 26.8391C26.1218 26.8391 29.9993 23.7808 29.9993 20.0025L30.0002 19.6241Z" fill="white"/>
</g>
</g>
<defs>
<clipPath id="clip0_821_4131">
<rect width="40" height="40" fill="white"/>
</clipPath>
<clipPath id="clip1_821_4131">
<rect width="20" height="20" fill="white" transform="translate(10 10)"/>
</clipPath>
</defs>
</svg>

<svg xmlns="http://www.w3.org/2000/svg" width="40" height="40" fill="none" viewBox="0 0 40 40"><g clip-path="url(#melion_svg-a)"><path fill="#CCEFFB" d="M20 0c11.046 0 20 8.954 20 20s-8.954 20-20 20S0 31.046 0 20 8.954 0 20 0"/><path fill="#00B1EA" d="M26 6a8 8 0 0 1 8 8v12a8 8 0 0 1-8 8H14a8 8 0 0 1-8-8V14a8 8 0 0 1 8-8z"/><g clip-path="url(#melion_svg-b)"><path fill="#fff" d="M19.263 23.733a.777.777 0 0 1-.783-.739c-.002-.035-.005-.129-.086-.129-.033 0-.061.02-.094.05a.55.55 0 0 1-.383.17.7.7 0 0 1-.254-.054c-.446-.178-.452-.482-.434-.604.005-.032.005-.067-.017-.092l-.027-.025h-.028c-.023 0-.046.01-.078.033a.66.66 0 0 1-.378.133.6.6 0 0 1-.21-.042c-.59-.225-.543-.773-.515-.938q.006-.051-.025-.077l-.042-.033-.039.036a.61.61 0 0 1-.851-.007.6.6 0 0 1-.18-.428c0-.334.274-.602.61-.602.304 0 .563.225.601.525l.022.163.091-.138c.009-.015.256-.383.71-.383q.129 0 .264.041c.361.109.423.434.432.567.007.078.063.083.075.083.031 0 .054-.02.07-.037a.62.62 0 0 1 .45-.188q.16 0 .334.075c.575.244.316.965.312.973-.048.12-.05.172-.004.203l.022.011h.017c.025 0 .059-.012.112-.03a1 1 0 0 1 .306-.066.79.79 0 0 1 .783.775.777.777 0 0 1-.783.774m6.085-3.476c-.949-.817-3.14-2.7-3.735-3.142-.338-.252-.57-.385-.773-.444a1.3 1.3 0 0 0-.38-.058q-.228 0-.483.079c-.384.12-.765.42-1.135.711l-.02.015c-.344.27-.7.55-.97.609q-.176.04-.358.04c-.301 0-.572-.086-.675-.215q-.024-.03.034-.104l.006-.006.834-.89c.652-.645 1.27-1.255 2.691-1.287h.071c.885 0 1.767.39 1.867.437.792.39 1.663.597 2.547.603.896 0 1.823-.22 2.794-.662a8 8 0 0 0-.337-.265q-1.28.55-2.455.55c-.802 0-1.604-.19-2.382-.566-.041-.019-1.016-.473-2.033-.475l-.08.001c-1.195.028-1.867.447-2.318.814-.44.01-.819.115-1.157.208-.3.083-.56.155-.816.154-.104 0-.292-.008-.308-.01-.292-.008-1.763-.364-2.932-.801q-.178.124-.346.258c1.222.494 2.709.877 3.177.907.13.009.27.023.41.023.31 0 .62-.086.92-.17.177-.049.37-.102.576-.141l-.163.162-.848.906c-.067.066-.212.244-.117.464.05.1.127.185.224.243.202.135.564.225.9.226q.19 0 .358-.037c.356-.079.728-.373 1.124-.683.314-.247.761-.56 1.103-.652a1.2 1.2 0 0 1 .387-.037c.225.028.444.104.836.393.696.517 3.776 3.18 3.805 3.205.002.002.198.17.183.447a.48.48 0 0 1-.245.389.75.75 0 0 1-.403.125.67.67 0 0 1-.357-.104c-.011-.008-1.066-.964-1.455-1.285-.061-.05-.121-.096-.183-.096a.1.1 0 0 0-.08.037c-.06.075.008.177.087.245l1.234 1.225a.57.57 0 0 1 .17.33q.014.305-.292.505a.8.8 0 0 1-.438.142.64.64 0 0 1-.35-.106l-.178-.172q-.435-.435-.9-.84c-.06-.049-.124-.094-.185-.094a.1.1 0 0 0-.078.032c-.027.03-.047.086.023.177q.03.036.063.069l.898.998c.009.009.185.217.02.426l-.032.04a1 1 0 0 1-.083.08c-.153.125-.358.137-.439.137a1 1 0 0 1-.122-.01q-.134-.023-.177-.075l-.011-.01c-.05-.05-.502-.508-.878-.817-.05-.042-.111-.092-.175-.092a.1.1 0 0 0-.08.035c-.075.08.036.2.083.244l.767.836a.2.2 0 0 1-.028.052c-.027.037-.12.13-.399.163a1 1 0 0 1-.102.006c-.287 0-.593-.136-.751-.22a1.12 1.12 0 0 0 .015-.923 1.135 1.135 0 0 0-1.09-.688c.02-.285-.021-.825-.581-1.061a1.2 1.2 0 0 0-.48-.104q-.182 0-.35.062a.96.96 0 0 0-.559-.47 1.3 1.3 0 0 0-.411-.07q-.35 0-.64.2a.973.973 0 0 0-1.435-.078c-.24-.181-1.188-.775-3.723-1.344a15 15 0 0 1-.576-.158q-.043.204-.065.412l.559.13c2.59.569 3.447 1.16 3.59 1.271a.95.95 0 0 0 .278 1.11.97.97 0 0 0 .796.202c.08.39.338.684.732.836a.9.9 0 0 0 .567.038c.073.184.236.411.603.557.12.05.25.076.38.078a.9.9 0 0 0 .296-.052 1.14 1.14 0 0 0 1.058.7c.308.002.605-.122.82-.341.185.1.574.284.97.284q.075 0 .146-.008c.391-.05.574-.2.657-.319l.04-.065c.092.027.195.049.311.049.213 0 .418-.072.625-.221.203-.145.348-.354.37-.531v-.008q.105.021.21.021c.22 0 .438-.068.643-.201.4-.259.469-.596.462-.817a1.07 1.07 0 0 0 .815-.162.87.87 0 0 0 .418-.673.9.9 0 0 0-.133-.544c.67-.285 2.197-.836 3.996-1.236a4 4 0 0 0-.056-.41 23 23 0 0 0-4.207 1.35zm4.269-.636c0 3.356-4.305 6.077-9.614 6.077s-9.615-2.721-9.615-6.077c0-3.357 4.304-6.078 9.615-6.078 5.31 0 9.614 2.721 9.614 6.078m.383.003c0-3.56-4.478-6.462-10-6.462-5.521 0-9.998 2.902-9.998 6.463l-.002.378c0 3.778 3.913 6.836 10 6.836 6.122 0 10-3.058 10-6.836z"/></g></g><defs><clipPath id="melion_svg-a"><path fill="#fff" d="M0 0h40v40H0z"/></clipPath><clipPath id="melion_svg-b"><path fill="#fff" d="M10 10h20v20H10z"/></clipPath></defs></svg>
